frontend/public/svg/logos/tumblr.svg

<svg width="161" height="160" viewBox="0 0 161 160" fill="none" xmlns="http://www.w3.org/2000/svg">
<g clip-path="url(#clip0)">
<path d="M160.354 97.5182C160.37 91.203 160.389 84.0443 160.35 77.1993C160.315 70.9996 160.095 64.7088 159.881 58.6252L159.745 54.6974C159.696 53.2357 159.656 51.7723 159.614 50.3001C159.483 45.4714 159.346 40.478 158.867 35.5614C158.361 30.7129 157.454 25.9147 156.157 21.2158C152.481 7.61452 139.117 1.17718 128.252 0.9514C124.035 0.866732 119.681 1.13246 115.837 1.36546C113.302 1.51904 110.68 1.67847 108.08 1.75067C104.399 1.85306 100.647 1.88202 96.9746 1.91155C93.813 1.93584 90.5425 1.96077 87.2759 2.03494C84.094 2.10845 80.9127 2.18029 77.7314 2.25029L75.7998 2.29292C60.8603 2.62437 45.4113 2.96636 30.2204 3.48093C15.9221 3.9653 4.36067 13.2997 2.10746 26.1804C1.2214 31.2499 1.19387 36.4671 1.24441 41.8123C1.39996 58.1932 1.63361 74.8503 1.86005 90.9588L1.86662 91.451C1.97776 99.2943 2.08556 107.138 2.19014 114.98L2.22171 117.235C2.27947 121.207 2.33788 125.315 2.22171 129.335C1.82791 143.107 13.9984 156.493 27.7572 157.419C30.2938 157.544 32.8354 157.532 35.3707 157.382L35.6286 157.372C37.1323 157.31 38.6786 157.248 40.2118 157.259C50.3995 157.313 59.5082 157.412 68.0537 157.563C82.2182 157.811 96.5539 158.114 110.664 158.462C111.793 158.525 112.913 158.683 114.015 158.934C114.576 159.044 115.137 159.154 115.693 159.243C115.766 159.255 115.838 159.261 115.912 159.261H122.628C122.694 159.261 122.76 159.255 122.825 159.246C124.168 159.049 125.516 158.87 126.889 158.69C129.813 158.304 132.838 157.906 135.789 157.283C149.572 154.371 160.625 140.27 160.43 125.85C160.305 116.355 160.33 106.78 160.354 97.5182ZM150.205 115.197V115.368C150.219 119.077 150.233 122.786 150.246 126.496C150.273 135.11 143.332 144.541 135.09 147.089C128.803 148.99 122.238 149.803 115.677 149.492C106.518 149.115 97.3651 148.681 88.5197 148.262C84.7917 148.086 81.0774 147.91 77.398 147.737L52.0798 147.728C45.967 147.728 39.867 147.733 33.7797 147.742H33.6484C27.2452 147.742 22.4409 146.131 18.5383 142.678C13.747 138.436 11.4924 132.599 11.4498 124.304C11.3185 99.503 11.1964 70.103 11.2417 40.0862C11.16 34.3712 12.5122 28.7267 15.1746 23.6691C17.5538 19.2716 21.0422 16.5353 25.2625 15.7517C32.2446 14.4534 39.0796 13.2739 45.941 13.0888C63.4803 12.6143 81.3242 12.3363 98.5793 12.0672H98.7421C107.418 11.9328 116.094 11.7898 124.769 11.6383C129.298 11.5458 133.81 12.8968 138.974 15.8536C144.494 19.0178 146.268 24.7903 147.274 30.02C149.44 41.2729 150.398 50.7018 150.287 59.6943C150.065 78.195 150.137 97.005 150.202 115.195L150.205 115.197Z" fill="black"/>
<path d="M123.359 45.7432C122.05 45.5747 120.729 45.5306 119.412 45.6118C115.264 45.8166 111.118 46.0327 106.971 46.2602L105.738 46.3259C103.033 46.4703 100.329 46.6126 97.6246 46.7531C94.5234 46.9126 91.4215 47.0576 88.258 47.2046L85.124 47.3517L85.1174 47.2796C85.0426 46.4795 84.9789 45.7883 84.9796 45.1234C84.9835 42.4106 84.996 39.6946 85.0176 36.9756C85.0353 34.0963 85.0531 31.2178 85.0557 28.341V28.0129C85.1358 26.8395 84.9848 25.6617 84.6107 24.5465C84.3193 23.9414 83.8835 23.4172 83.342 23.0198C82.8005 22.6224 82.1698 22.364 81.5049 22.2673C80.8466 22.2572 80.1955 22.4017 79.6035 22.689C79.0115 22.9764 78.4956 23.3987 78.0965 23.922C77.4297 24.9665 77.0398 26.1636 76.9644 27.4004C76.3179 33.5306 75.8709 38.2746 75.5119 42.783C75.4003 44.1974 75.4285 45.6263 75.4568 47.0191L75.46 47.1726C75.464 47.3682 75.4673 47.565 75.4705 47.7632L75.3596 47.7789C74.7978 47.8732 74.2314 47.9392 73.663 47.976C65.793 48.2823 57.922 48.58 50.0499 48.8692L46.4978 49.0006C46.2352 49.0098 45.9412 48.9945 45.6281 48.9781L45.529 48.973C44.5603 48.842 43.5742 48.9582 42.6628 49.3114C41.1945 49.9726 40.0257 51.1581 39.385 52.6354C39.2113 53.121 39.1398 53.6371 39.1751 54.1516C39.2103 54.6661 39.3515 55.1675 39.5898 55.6249C39.8744 56.1432 40.2629 56.5973 40.731 56.9587C41.1991 57.32 41.7368 57.5811 42.3103 57.7253C43.9332 58.1783 45.6084 58.4163 47.2932 58.4329C50.0315 58.4506 52.899 58.3894 55.2014 58.3447C57.0464 58.3086 58.8901 58.2732 60.7351 58.2601C64.2419 58.2345 67.8354 58.2404 71.3094 58.2463L74.9232 58.2509C74.9232 58.6256 74.9232 58.9866 74.9291 59.3475C74.996 63.1937 75.0498 67.0424 75.0912 70.8931C75.2067 80.3168 75.3268 90.0582 75.7475 99.6407C76.0862 105.748 77.0044 111.809 78.491 117.742C80.1227 124.665 83.6715 129.858 89.0384 133.178C95.5564 137.387 103.331 139.209 111.041 138.334C116.966 137.667 121.308 135.557 124.313 131.882C126.615 129.066 126.975 125.896 125.207 123.993C122.571 121.155 119.752 122.798 117.889 123.884L117.793 123.939C113.527 126.424 109.621 127.425 105.495 127.089C96.4372 126.358 91.3382 122.191 88.9596 113.577C88.4641 111.921 88.0788 110.235 87.8057 108.528C85.4357 91.3078 85.2972 73.4213 85.1804 57.6157C85.7192 57.5229 86.2627 57.4594 86.8081 57.4253C98.7646 56.9396 110.722 56.4669 122.68 56.0075C125.839 55.888 127.917 54.0687 128.104 51.2596C128.288 48.4065 126.382 46.1876 123.359 45.7432Z" fill="black"/>
</g>
<defs>
<clipPath id="clip0">
<rect width="160.146" height="158.834" fill="white" transform="translate(0.623779 0.708984)"/>
</clipPath>
</defs>
</svg>

<svg xmlns="http://www.w3.org/2000/svg" width="161" height="160" fill="none" viewBox="0 0 161 160"><g fill="#000" clip-path="url(#a)"><path d="M160.354 97.518c.016-6.315.035-13.474-.004-20.319-.035-6.2-.255-12.49-.469-18.574l-.136-3.928c-.049-1.461-.089-2.925-.131-4.397-.131-4.829-.268-9.822-.747-14.739a88.4 88.4 0 0 0-2.71-14.345C152.481 7.615 139.117 1.177 128.252.95c-4.217-.084-8.571.181-12.415.414-2.535.154-5.157.313-7.757.386-3.681.102-7.433.131-11.105.16-3.162.025-6.432.05-9.7.124q-4.771.11-9.544.215l-1.931.043c-14.94.331-30.389.673-45.58 1.188-14.298.484-25.86 9.819-28.113 22.7-.886 5.069-.913 10.286-.863 15.631.156 16.381.39 33.038.616 49.147l.007.492q.166 11.765.323 23.529l.032 2.255c.057 3.972.116 8.08 0 12.1-.394 13.772 11.776 27.158 25.535 28.084 2.537.125 5.078.113 7.614-.037l.258-.01c1.503-.062 3.05-.124 4.583-.113 10.188.054 19.296.153 27.842.304 14.164.248 28.5.551 42.61.899 1.129.063 2.249.221 3.351.472.561.11 1.122.22 1.678.309q.109.018.219.018h6.716q.1 0 .197-.015a268 268 0 0 1 4.064-.556c2.924-.386 5.949-.784 8.9-1.407 13.783-2.912 24.836-17.013 24.641-31.433-.125-9.495-.1-19.07-.076-28.332m-10.149 17.679v.171l.041 11.128c.027 8.614-6.914 18.045-15.156 20.593a57.6 57.6 0 0 1-19.413 2.403c-9.159-.377-18.312-.811-27.157-1.23l-11.122-.525-25.318-.009q-9.17 0-18.3.014h-.132c-6.403 0-11.207-1.611-15.11-5.064-4.791-4.242-7.046-10.079-7.088-18.374-.131-24.801-.254-54.201-.208-84.218a34.2 34.2 0 0 1 3.933-16.417c2.379-4.397 5.867-7.134 10.087-7.917 6.983-1.299 13.818-2.478 20.679-2.663 17.54-.475 35.383-.753 52.638-1.022h.163q13.014-.201 26.027-.429c4.529-.092 9.041 1.259 14.205 4.216 5.52 3.164 7.294 8.936 8.3 14.166 2.166 11.253 3.124 20.682 3.013 29.674-.222 18.501-.15 37.311-.085 55.501z"/><path d="M123.359 45.743a21 21 0 0 0-3.947-.131q-6.221.307-12.441.648l-1.233.066q-4.057.217-8.113.427c-3.102.16-6.204.305-9.367.452l-3.134.147-.007-.072c-.074-.8-.138-1.492-.137-2.157q.005-4.068.038-8.147c.017-2.88.035-5.758.038-8.635v-.328a9 9 0 0 0-.445-3.466 4.1 4.1 0 0 0-3.106-2.28 4.2 4.2 0 0 0-3.408 1.655 7.3 7.3 0 0 0-1.133 3.478c-.646 6.13-1.093 10.875-1.452 15.383-.112 1.414-.084 2.843-.055 4.236l.003.154.01.59-.11.016q-.844.141-1.697.197-11.805.46-23.613.893l-3.552.132a10 10 0 0 1-.87-.023l-.099-.005a5.8 5.8 0 0 0-2.866.338 6.47 6.47 0 0 0-3.278 3.324 3.74 3.74 0 0 0 .205 2.99 4.3 4.3 0 0 0 2.72 2.1c1.623.453 3.298.691 4.983.708 2.739.018 5.606-.044 7.908-.088 1.845-.036 3.69-.072 5.534-.085 3.507-.026 7.1-.02 10.574-.014l3.614.005c0 .375 0 .736.006 1.096q.1 5.77.162 11.546c.116 9.424.236 19.165.657 28.748a96.5 96.5 0 0 0 2.743 18.101c1.632 6.923 5.18 12.116 10.547 15.436a33.58 33.58 0 0 0 22.003 5.156c5.925-.667 10.267-2.777 13.272-6.452 2.302-2.816 2.662-5.986.894-7.889-2.636-2.838-5.455-1.195-7.318-.109l-.096.055c-4.266 2.485-8.172 3.486-12.298 3.15-9.058-.731-14.157-4.898-16.535-13.512a39 39 0 0 1-1.154-5.049c-2.37-17.22-2.509-35.107-2.626-50.912a15 15 0 0 1 1.628-.19q17.935-.73 35.872-1.419c3.159-.119 5.237-1.938 5.424-4.747.184-2.853-1.722-5.072-4.745-5.517"/></g><defs><clipPath id="a"><path fill="#fff" d="M.624.709H160.77v158.834H.624z"/></clipPath></defs></svg>
